app/public/dtpr-icons/light.svg

<svg width="36" height="36" viewBox="0 0 36 36" fill="none" xmlns="http://www.w3.org/2000/svg">
<path d="M31.8564 8.8453L19 1.42265C18.3812 1.06538 17.6188 1.06538 17 1.42265L4.14359 8.8453C3.52479 9.20257 3.14359 9.86282 3.14359 10.5774V25.4226C3.14359 26.1372 3.52479 26.7974 4.14359 27.1547L17 34.5774C17.6188 34.9346 18.3812 34.9346 19 34.5774L31.8564 27.1547C32.4752 26.7974 32.8564 26.1372 32.8564 25.4226V10.5774C32.8564 9.86282 32.4752 9.20256 31.8564 8.8453Z" stroke="black" stroke-width="2"/>
<path fill-rule="evenodd" clip-rule="evenodd" d="M13 18C13 15.24 15.24 13 18 13C20.76 13 23 15.24 23 18C23 20.76 20.76 23 18 23C15.24 23 13 20.76 13 18ZM15 18C15 19.65 16.35 21 18 21C19.65 21 21 19.65 21 18C21 16.35 19.65 15 18 15C16.35 15 15 16.35 15 18Z" fill="black"/>
<path fill-rule="evenodd" clip-rule="evenodd" d="M16.972 8.84344V9.86848C16.972 10.4358 17.431 10.8948 17.9971 10.8948C18.5644 10.8948 19.0234 10.4358 19.0234 9.86848V8.84344C19.0234 8.27738 18.5644 7.81839 17.9971 7.81839C17.431 7.81839 16.972 8.27738 16.972 8.84344Z" fill="black"/>
<path fill-rule="evenodd" clip-rule="evenodd" d="M17.9976 25.2528C17.4315 25.2528 16.9725 25.713 16.9725 26.2779V27.3041C16.9725 27.8702 17.4315 28.3292 17.9976 28.3292C18.5636 28.3292 19.0226 27.8702 19.0226 27.3041V26.2779C19.0226 25.713 18.5636 25.2528 17.9976 25.2528Z" fill="black"/>
<path fill-rule="evenodd" clip-rule="evenodd" d="M25.1772 18.0738C25.1772 18.6398 25.6362 19.0988 26.2023 19.0988H27.2285C27.7946 19.0988 28.2536 18.6398 28.2536 18.0738C28.2536 17.5077 27.7946 17.0487 27.2285 17.0487H26.2023C25.6362 17.0487 25.1772 17.5077 25.1772 18.0738Z" fill="black"/>
<path fill-rule="evenodd" clip-rule="evenodd" d="M10.8187 18.0738C10.8187 17.5077 10.3597 17.0487 9.79363 17.0487H8.76736C8.2013 17.0487 7.74231 17.5077 7.74231 18.0738C7.74231 18.6398 8.2013 19.0988 8.76736 19.0988H9.79363C10.3597 19.0988 10.8187 18.6398 10.8187 18.0738Z" fill="black"/>
<path fill-rule="evenodd" clip-rule="evenodd" d="M11.4705 12.9978C11.6711 13.1984 11.9332 13.298 12.1953 13.298C12.4586 13.298 12.7208 13.1984 12.9213 12.9978C13.3213 12.5966 13.3213 11.9469 12.9213 11.547L12.1953 10.8222C11.7954 10.421 11.1457 10.421 10.7457 10.8222C10.3446 11.2221 10.3446 11.8718 10.7457 12.273L11.4705 12.9978Z" fill="black"/>
<path fill-rule="evenodd" clip-rule="evenodd" d="M24.5247 23.1504C24.1247 22.7493 23.4738 22.7493 23.0738 23.1504C22.6739 23.5503 22.6739 24.2001 23.0738 24.6012L23.7986 25.326C23.9992 25.5266 24.2613 25.6263 24.5247 25.6263C24.7868 25.6263 25.0501 25.5266 25.2495 25.326C25.6506 24.9249 25.6506 24.2764 25.2495 23.8752L24.5247 23.1504Z" fill="black"/>
<path fill-rule="evenodd" clip-rule="evenodd" d="M23.7989 13.2977C24.0622 13.2977 24.3243 13.198 24.5249 12.9974L25.2497 12.2726C25.6509 11.8715 25.6509 11.2217 25.2497 10.8218C24.8498 10.4219 24.2 10.4219 23.7989 10.8218L23.0741 11.5478C22.6742 11.9477 22.6742 12.5975 23.0741 12.9974C23.2747 13.198 23.5368 13.2977 23.7989 13.2977Z" fill="black"/>
<path fill-rule="evenodd" clip-rule="evenodd" d="M11.4705 23.1504L10.7457 23.8752C10.3446 24.2764 10.3446 24.9249 10.7457 25.326C10.9463 25.5266 11.2084 25.6263 11.4705 25.6263C11.7326 25.6263 11.996 25.5266 12.1953 25.326L12.9213 24.6012C13.3213 24.2001 13.3213 23.5503 12.9213 23.1504C12.5214 22.7493 11.8717 22.7493 11.4705 23.1504Z" fill="black"/>
</svg>

<svg xmlns="http://www.w3.org/2000/svg" width="36" height="36" fill="none"><path stroke="#000" stroke-width="2" d="M31.856 8.845 19 1.423a2 2 0 0 0-2 0L4.144 8.845a2 2 0 0 0-1 1.732v14.846a2 2 0 0 0 1 1.732L17 34.577a2 2 0 0 0 2 0l12.856-7.422a2 2 0 0 0 1-1.732V10.577a2 2 0 0 0-1-1.732Z"/><path fill="#000" fill-rule="evenodd" d="M13 18c0-2.76 2.24-5 5-5s5 2.24 5 5-2.24 5-5 5-5-2.24-5-5m2 0c0 1.65 1.35 3 3 3s3-1.35 3-3-1.35-3-3-3-3 1.35-3 3M16.972 8.843v1.025a1.025 1.025 0 1 0 2.051 0V8.843a1.025 1.025 0 0 0-2.051 0M17.998 25.253c-.567 0-1.026.46-1.026 1.025v1.026a1.025 1.025 0 0 0 2.05 0v-1.026c0-.565-.458-1.025-1.024-1.025M25.177 18.074c0 .566.46 1.025 1.025 1.025h1.026a1.025 1.025 0 0 0 0-2.05h-1.026c-.566 0-1.025.459-1.025 1.025M10.819 18.074c0-.566-.46-1.025-1.025-1.025H8.767a1.025 1.025 0 0 0 0 2.05h1.027c.566 0 1.025-.46 1.025-1.025M11.47 12.998c.201.2.463.3.725.3a1.027 1.027 0 0 0 .726-1.751l-.726-.725a1.025 1.025 0 1 0-1.45 1.45zM24.525 23.15a1.025 1.025 0 1 0-1.451 1.451l.725.725c.2.2.462.3.726.3a1.025 1.025 0 0 0 .725-1.751zM23.799 13.298c.263 0 .525-.1.726-.3l.725-.725a1.025 1.025 0 1 0-1.451-1.451l-.725.726a1.026 1.026 0 0 0 .725 1.75M11.47 23.15l-.724.725a1.025 1.025 0 1 0 1.45 1.451l.725-.725a1.027 1.027 0 0 0-1.45-1.45" clip-rule="evenodd"/></svg>
